img/icons/action/fullscreen.svg

<svg viewBox="0 0 16 16" xmlns="http://www.w3.org/2000/svg"><path d="m13 3.5v3c0 0.276-0.224 0.5-0.5 0.5s-0.5-0.224-0.5-0.5v-1.79l-2.15 2.15c-0.195 0.195-0.512 0.195-0.707 0-0.195-0.195-0.195-0.512 0-0.707l2.15-2.15h-1.79c-0.276 0-0.5-0.224-0.5-0.5s0.224-0.5 0.5-0.5h3c0.0678 0 0.132 0.0135 0.191 0.0379 0.0581 0.024 0.113 0.0595 0.16 0.106l0.0043 0.00424c0.0469 0.0474 0.0823 0.102 0.106 0.16 0.024 0.0581 0.0375 0.122 0.0379 0.188v0.00349z" fill="#000"/><path d="m3.5 9c0.276 0 0.5 0.224 0.5 0.5v1.79l2.15-2.15c0.195-0.195 0.512-0.195 0.707 0 0.195 0.195 0.195 0.512 0 0.707l-2.15 2.15h1.79c0.276 0 0.5 0.224 0.5 0.5s-0.224 0.5-0.5 0.5h-3-0.00349c-0.0667-4e-4 -0.13-0.0139-0.188-0.0379-0.059-0.0244-0.114-0.0606-0.162-0.108-0.0479-0.048-0.0841-0.103-0.109-0.162-0.0244-0.059-0.0379-0.124-0.0379-0.191v-3c0-0.276 0.224-0.5 0.5-0.5z" fill="#000"/><path d="m0 4.8c0-1.68 0-2.52 0.327-3.16 0.288-0.564 0.747-1.02 1.31-1.31 0.642-0.327 1.48-0.327 3.16-0.327h6.4c1.68 0 2.52 0 3.16 0.327 0.564 0.288 1.02 0.747 1.31 1.31 0.327 0.642 0.327 1.48 0.327 3.16v6.4c0 1.68 0 2.52-0.327 3.16-0.288 0.564-0.746 1.02-1.31 1.31-0.642 0.327-1.48 0.327-3.16 0.327h-6.4c-1.68 0-2.52 0-3.16-0.327-0.564-0.288-1.02-0.746-1.31-1.31-0.327-0.642-0.327-1.48-0.327-3.16v-6.4zm4.8-3.8h6.4c0.857 0 1.44 7.8e-4 1.89 0.0376 0.438 0.0358 0.663 0.101 0.819 0.18 0.376 0.192 0.682 0.498 0.874 0.874 0.0797 0.156 0.145 0.381 0.18 0.819 0.0368 0.45 0.0376 1.03 0.0376 1.89v6.4c0 0.857-8e-4 1.44-0.0376 1.89-0.0358 0.438-0.101 0.663-0.18 0.819-0.192 0.376-0.498 0.682-0.874 0.874-0.156 0.0797-0.381 0.145-0.819 0.18-0.45 0.0368-1.03 0.0376-1.89 0.0376h-6.4c-0.857 0-1.44-8e-4 -1.89-0.0376-0.438-0.0358-0.663-0.101-0.819-0.18-0.376-0.192-0.682-0.498-0.874-0.874-0.0797-0.156-0.145-0.381-0.18-0.819-0.0368-0.45-0.0376-1.03-0.0376-1.89v-6.4c0-0.857 7.8e-4 -1.44 0.0376-1.89 0.0358-0.438 0.101-0.663 0.18-0.819 0.192-0.376 0.498-0.682 0.874-0.874 0.156-0.0797 0.381-0.145 0.819-0.18 0.45-0.0368 1.03-0.0376 1.89-0.0376z" clip-rule="evenodd" fill="#000" fill-rule="evenodd"/></svg>

<svg xmlns="http://www.w3.org/2000/svg" viewBox="0 0 16 16" fill="none">
  <path fill="#000"
    d="M13 3.5v3a.5.5 0 0 1-1 0V4.707L9.854 6.854a.5.5 0 1 1-.708-.708L11.293 4H9.5a.5.5 0 0 1 0-1h3a.499.499 0 0 1 .351.144l.005.005a.5.5 0 0 1 .144.348V3.5ZM3.5 9a.5.5 0 0 1 .5.5v1.793l2.146-2.147a.5.5 0 1 1 .708.708L4.707 12H6.5a.5.5 0 0 1 0 1H3.497A.5.5 0 0 1 3 12.5v-3a.5.5 0 0 1 .5-.5Z" />
  <path fill="#000" fill-rule="evenodd"
    d="M0 4.8c0-1.68 0-2.52.327-3.162A3 3 0 0 1 1.638.327C2.28 0 3.12 0 4.8 0h6.4c1.68 0 2.52 0 3.162.327a3 3 0 0 1 1.311 1.311C16 2.28 16 3.12 16 4.8v6.4c0 1.68 0 2.52-.327 3.162a3 3 0 0 1-1.311 1.311C13.72 16 12.88 16 11.2 16H4.8c-1.68 0-2.52 0-3.162-.327a3 3 0 0 1-1.311-1.311C0 13.72 0 12.88 0 11.2V4.8ZM4.8 1h6.4c.857 0 1.439 0 1.889.038.438.035.663.1.819.18a2 2 0 0 1 .874.874c.08.156.145.38.18.819C15 3.361 15 3.943 15 4.8v6.4c0 .857 0 1.439-.038 1.889-.035.438-.1.663-.18.819a2 2 0 0 1-.874.874c-.156.08-.38.145-.819.18-.45.037-1.032.038-1.889.038H4.8c-.857 0-1.439 0-1.889-.038-.438-.035-.663-.1-.819-.18a2 2 0 0 1-.874-.874c-.08-.156-.145-.38-.18-.819C1 12.639 1 12.057 1 11.2V4.8c0-.857 0-1.439.038-1.889.035-.438.1-.663.18-.819a2 2 0 0 1 .874-.874c.156-.08.38-.145.819-.18C3.361 1 3.943 1 4.8 1Z"
    clip-rule="evenodd" />
</svg>
